#define im_width 200
#define im_height 150
static char im_bits[] = {
0x6d,0xdb,0xb6,0x6d,0xdb,0xb6,0x6d,0xdb,0xb6,0x6d,0xdb,0xb6,0x6d,0xdb,0xb6,
0x6d,0xdb,0xb6,0x6d,0xdb,0xb6,0x6d,0xdb,0xb6,0x6d,0xdd,0xbc,0x79,0xf3,0xe6,
0xcd,0x9b,0x37,0x6f,0xde,0xbc,0x79,0xf3,0xe6,0xcd,0x9b,0x37,0x6f,0xde,0xbc,
0x39,0xdb,0xb6,0x6e,0xde,0xfe,0xcc,0x99,0x33,0x67,0xce,0x9c,0x39,0x73,0xe6,
0xcc,0x99,0x33,0x67,0xce,0x9c,0x39,0x73,0xe6,0xcc,0xd9,0xb6,0x6d,0x4b,0xe6,
0x2f,0x3b,0x77,0xee,0xdc,0xb9,0x73,0xe7,0xce,0x9d,0x3b,0x77,0xee,0xff,0xff,
0x73,0xe7,0xce,0x9d,0x3b,0xf7,0x6d,0xdb,0xb6,0x9f,0xcb,0x9a,0xdf,0xbf,0x7f,
0xff,0xfe,0xfd,0xfb,0xf7,0xef,0xdf,0xff,0xff,0xff,0xff,0xfd,0xfb,0xf7,0xef,
0xbf,0xdb,0xf6,0x6d,0x7b,0xb2,0xb5,0x5b,0xbb,0x76,0xed,0xda,0xb5,0x6b,0xd7,
0xae,0xdd,0xff,0xff,0xff,0xdf,0xb5,0x6b,0xd7,0xae,0x7d,0xf6,0xeb,0xea,0x96,
0xa9,0xaa,0xf7,0xb6,0x6b,0xd7,0xae,0x5d,0xbb,0x76,0xed,0xfa,0xff,0xff,0xff,
0x7f,0x4b,0xbb,0x76,0xed,0xca,0xfd,0xdb,0xe2,0x5d,0xf7,0x54,0xef,0x2d,0xff,
0x92,0x24,0x49,0x92,0x24,0x49,0xfa,0xff,0xff,0xff,0xfe,0xbf,0x92,0x24,0x49,
0xd2,0xfe,0xb6,0xdf,0xea,0xbe,0x49,0x0a,0xff,0xff,0x3f,0x59,0xb2,0x64,0xc9,
0x92,0xfd,0xff,0xff,0xff,0xff,0x5f,0x67,0xc9,0x92,0xb5,0xfd,0x7f,0x91,0xef,
0xaf,0x95,0x37,0xff,0xff,0xff,0xb2,0x65,0xcb,0x96,0x2d,0xff,0xff,0xff,0xff,
0xff,0xef,0xb6,0x96,0x2d,0x6b,0xff,0xd7,0xfe,0x4b,0xb5,0xdd,0xcc,0xff,0xff,
0xff,0x23,0x4a,0x94,0x28,0x51,0xff,0xbf,0xff,0x7f,0xff,0xdf,0x5f,0x2f,0x51,
0xd6,0xfa,0x9f,0xdc,0x97,0xca,0x9e,0xf5,0xff,0xff,0xff,0x7f,0x57,0xb7,0x6e,
0xdd,0xff,0xff,0xf7,0xff,0xdf,0x7f,0xbd,0xb5,0xbb,0xb4,0xbd,0x2d,0x9b,0x6f,
0xef,0x5d,0xfb,0x7b,0xff,0xff,0xdf,0x5e,0x6a,0xd7,0xae,0xff,0xff,0xff,0xff,
0xff,0xff,0x7b,0x5b,0xf6,0x29,0xfb,0xef,0x36,0x4b,0xeb,0xd8,0xfc,0xff,0xff,
0xff,0x9f,0xce,0xf6,0xd4,0xe9,0xff,0xff,0x7e,0xff,0xfe,0xff,0xa9,0xf6,0x6f,
0xd5,0xd6,0xb4,0x7d,0xba,0x44,0xfd,0xfd,0xfd,0xff,0xff,0x7b,0xaf,0xc6,0x5b,
0xf7,0xff,0xfb,0xff,0xff,0xff,0xff,0xed,0xff,0xff,0xae,0xad,0x6f,0xff,0x64,
0xcd,0xb6,0xfe,0xff,0xff,0xff,0xff,0xfe,0x82,0xbb,0xfc,0xff,0xff,0xff,0xff,
0xff,0xff,0xef,0xff,0xff,0x5b,0xeb,0xda,0xe3,0xce,0x7b,0xe5,0xfe,0xff,0xff,
0xff,0xff,0x9b,0x6b,0x7f,0xff,0xff,0xff,0xff,0xff,0xff,0xff,0xff,0xff,0xff,
0x2f,0xde,0xb6,0xd5,0x97,0x74,0x42,0xff,0xff,0xff,0xff,0xff,0xd7,0xfa,0x2b,
0xff,0xff,0xff,0xff,0xdf,0xff,0x6f,0xff,0xff,0xff,0xff,0xb1,0x6d,0x34,0xcf,
0xeb,0xb4,0xff,0xdf,0xff,0xff,0xff,0xaf,0x5f,0xd7,0xf8,0xff,0xff,0xff,0xff,
0xff,0xff,0xff,0xff,0xff,0x7f,0x6b,0xdb,0x2d,0x55,0xdb,0xeb,0xff,0xff,0xff,
0xff,0xff,0x9f,0x6d,0x76,0xfe,0xff,0xff,0xff,0xff,0xff,0xf7,0xfd,0xff,0xff,
0xff,0xd7,0xb6,0xf5,0xb0,0xbe,0xdd,0xff,0xff,0xff,0xff,0xff,0x7f,0xff,0xac,
0xd6,0xff,0xff,0xff,0xff,0xff,0xff,0xff,0xff,0xff,0xff,0xff,0x37,0xcd,0xb4,
0x79,0xf7,0xff,0xff,0xff,0xfe,0xbf,0x9f,0xfe,0x9d,0xac,0xff,0xff,0xff,0xff,
0xff,0xff,0xff,0xff,0xff,0xff,0x77,0x69,0x9a,0x5d,0xb5,0x6c,0xff,0xff,0xff,
0xff,0xff,0x6f,0xbf,0x73,0x55,0xff,0xff,0xff,0xff,0xff,0xdf,0xff,0xff,0xff,
0xff,0xd7,0xf2,0x70,0xa9,0x6e,0xcb,0xff,0xff,0xff,0xff,0xff,0xb9,0x2b,0xe7,
0xba,0xfc,0xff,0xff,0xff,0xf7,0xd7,0xff,0xfb,0xff,0xff,0x6e,0xee,0x67,0xf3,
0xb9,0x9b,0xfe,0xff,0xff,0xff,0xff,0xfe,0xd5,0xce,0x7b,0xf7,0x7f,0xff,0xab,
0xff,0xf8,0xff,0xff,0xfe,0xff,0xc7,0xfc,0xdc,0xd5,0x75,0xaf,0xff,0xfe,0xff,
0xff,0xff,0xf5,0xb8,0xdb,0xb3,0xda,0xbb,0xea,0xd0,0xcc,0xe0,0xff,0xff,0xff,
0xff,0xf7,0xd9,0xf9,0xd5,0xee,0x7a,0xf7,0xff,0x7f,0xff,0xbf,0xe2,0xa9,0xb6,
0xb7,0xdb,0xb5,0xd8,0x8d,0xb7,0xcf,0xff,0xff,0xff,0xff,0xcf,0x8f,0x76,0x55,
0x45,0xfa,0x9e,0xef,0xff,0xf7,0xf7,0x7c,0x7f,0xfc,0xf7,0xeb,0x3f,0x9f,0x7d,
0xbf,0xdf,0xff,0xff,0xff,0xff,0xff,0xff,0xeb,0x7f,0xff,0x7e,0xdd,0xff,0xdd,
0xff,0x7e,0x5f,0xbf,0xff,0xf7,0xff,0xff,0xa3,0x99,0xbf,0x6e,0xff,0xef,0xff,
0xff,0xbf,0xed,0xff,0x7f,0xff,0x63,0xde,0x3f,0xff,0xff,0x7f,0xbd,0x73,0xee,
0xee,0x6f,0xff,0x37,0x33,0xe7,0x16,0xf5,0xeb,0xff,0xbf,0xff,0xdd,0xfe,0xdf,
0xff,0xda,0xfe,0xbf,0x3d,0xcc,0x77,0xe5,0xf3,0xfe,0xdf,0xdf,0x36,0x7c,0xbf,
0x7e,0x7e,0xff,0xdf,0x3f,0xff,0x7c,0xeb,0xfd,0x37,0xb3,0xfc,0xee,0xbf,0x19,
0x1a,0xc5,0x4e,0xff,0x97,0xdd,0xff,0x6f,0xfd,0x7f,0xff,0xfc,0x7d,0xbf,0xfb,
0xdf,0xd1,0x4f,0xda,0x63,0x7f,0xfd,0xcf,0xff,0xff,0x93,0xf8,0x7b,0xbf,0xbf,
0x7f,0xff,0x7f,0xff,0x3f,0x7d,0xe1,0x7f,0xff,0xef,0x8f,0xf7,0x9e,0x1e,0xe7,
0xeb,0xff,0x7f,0xff,0xf8,0x1d,0xdb,0xad,0xf2,0xbf,0xfe,0x3f,0xff,0xfb,0xff,
0xfa,0x2f,0xbe,0xce,0xf6,0xae,0xef,0xd7,0xbf,0xfd,0xff,0xbf,0xb6,0xba,0xfd,
0xbc,0xfb,0xdb,0xfe,0xff,0xbf,0xfe,0xff,0xe7,0xfd,0xfd,0xff,0xff,0xdb,0xe7,
0xff,0xdf,0x0f,0xb9,0xd9,0xff,0x7e,0xf2,0xfe,0xe9,0xee,0x8f,0xf5,0x19,0xdf,
0x84,0xfd,0xfd,0xff,0x39,0xf2,0xe7,0xd6,0xdc,0xff,0xf1,0xff,0xf3,0x87,0xbf,
0xff,0x73,0x76,0xff,0xaf,0xfd,0xbf,0xb6,0xf7,0x9c,0x4b,0xf9,0x7b,0xb7,0xc3,
0xcf,0xe3,0x0f,0xff,0x27,0xf6,0x3f,0xe3,0xbf,0x7f,0xfd,0xff,0xfd,0x6c,0xff,
0xff,0xf8,0x75,0xfb,0xdf,0xdf,0x5b,0x7f,0x3f,0x6f,0x38,0x9f,0x4f,0xdf,0x5f,
0xf4,0x75,0x6b,0xf7,0xdd,0xfd,0xd7,0xff,0xed,0xff,0x7f,0xdf,0xef,0xfe,0xf7,
0xff,0xf7,0xbe,0x7c,0xf7,0xf2,0xfb,0x53,0xbf,0xfb,0xe9,0x69,0xff,0xeb,0xe9,
0xff,0xf1,0xef,0xff,0xf9,0xc8,0xbf,0xfa,0x9f,0xbb,0xfc,0x37,0xfe,0x7c,0xfd,
0xde,0xff,0xf6,0xae,0xff,0x1f,0xfb,0x7f,0x6f,0xd7,0xdf,0xfe,0xff,0xff,0x76,
0xb3,0xff,0x44,0x7d,0x13,0x79,0xff,0xff,0xfd,0xaf,0xfd,0xff,0xa7,0x1e,0x3e,
0xff,0x7b,0xf7,0xff,0x9e,0xff,0xff,0xed,0xf7,0x7e,0x7f,0xef,0x93,0xea,0xbe,
0xfd,0xfb,0xff,0xbf,0xff,0xe3,0xfb,0xaf,0xfb,0xff,0xcf,0x4f,0xbe,0xf9,0xbb,
0xff,0xde,0xfb,0xfd,0xfe,0xcf,0x56,0xfe,0xff,0x7e,0x7a,0x9e,0xf7,0xff,0xff,
0xfe,0xf2,0x4f,0xfd,0xfe,0x9f,0xd7,0xfd,0xf5,0xff,0xff,0xb7,0xbf,0xc9,0xfb,
0x97,0xf5,0xf6,0xfb,0xff,0xff,0xdd,0x7f,0xff,0xf8,0xbb,0xfd,0x7f,0xff,0xf9,
0x2c,0xcf,0x5b,0xe5,0xf7,0x7f,0xef,0xd7,0xfd,0xff,0xe1,0xf7,0xef,0xf9,0x7b,
0xdf,0x9d,0xff,0xff,0xfa,0x7f,0x73,0xf7,0xef,0x77,0x6d,0x9d,0xa7,0xe3,0xdc,
0xcf,0x3f,0x6f,0xfa,0xff,0x7f,0xf6,0xde,0xc3,0xf7,0xfd,0xf1,0xf9,0xe7,0xef,
0xbf,0xbf,0xff,0x53,0x3f,0xde,0xff,0xfd,0xff,0x67,0x1f,0xfe,0x75,0xfa,0x6e,
0xff,0xf9,0xfe,0xae,0x7f,0x6e,0xdf,0xbc,0xd5,0xe7,0xed,0xff,0xfb,0xbf,0xcf,
0xde,0x77,0xff,0x7b,0x47,0x1f,0xea,0xe3,0xf6,0xdf,0x8f,0xd3,0xff,0x7d,0xfc,
0xf3,0xff,0x23,0xfd,0xfc,0xfb,0xef,0x3d,0xf9,0x9f,0xae,0xef,0x3e,0xff,0xff,
0xe3,0xfb,0xdf,0xa5,0xff,0xee,0xff,0xff,0xf7,0x94,0xd7,0x6f,0x7f,0xe9,0xdf,
0xfb,0xdf,0x1d,0xf3,0x98,0xff,0x6f,0xe6,0xe5,0xff,0xdf,0xf8,0xbf,0xde,0xed,
0x5d,0xff,0xff,0xee,0xae,0xdf,0x6f,0xfb,0xea,0x7d,0x9f,0xff,0x5d,0x25,0xd3,
0x13,0xfc,0x7d,0xf7,0xff,0xc3,0x79,0x3e,0xb3,0xff,0xdf,0xdb,0xfd,0xff,0xff,
0x5d,0x3f,0xca,0xff,0xff,0xbf,0xfb,0xff,0xfe,0xd4,0xf4,0xd6,0xbf,0xec,0xbf,
0xef,0xe1,0xbf,0xbc,0x5e,0x8e,0x92,0x1b,0xfc,0xdf,0xf9,0x7d,0xa1,0xe5,0xfe,
0xdf,0xef,0xff,0xff,0xae,0x7d,0xf2,0xba,0xdb,0xfd,0xdf,0xdd,0x3e,0xdf,0xfd,
0xbb,0xba,0x2b,0xfd,0xbf,0xfd,0x9b,0xfc,0x6d,0x5d,0x37,0xee,0xff,0xff,0xbf,
0x45,0xcf,0x4f,0x33,0xff,0x1f,0xff,0xdb,0xff,0x8d,0xb7,0xff,0x36,0x6f,0x31,
0xb6,0xb7,0xfd,0xe7,0xe5,0xf2,0xe7,0xff,0xff,0xcf,0xfb,0x2c,0x9f,0xff,0x74,
0xf3,0xd7,0xde,0xaf,0xbf,0x56,0xe5,0xb7,0xdb,0x7b,0xff,0xbf,0xd7,0xff,0xff,
0xf9,0xfb,0xff,0xff,0x7f,0xc7,0xe9,0x9b,0xfd,0x5e,0xb7,0x7f,0xd9,0xff,0xf7,
0xbf,0xff,0xdd,0xfe,0xff,0xcb,0xff,0xc7,0xff,0xff,0xff,0xff,0x7f,0xf9,0xbe,
0xef,0xf3,0xf7,0xff,0xfb,0xbb,0xf2,0xc7,0xcf,0xff,0xf9,0xff,0x37,0xff,0x65,
0x73,0xfa,0xff,0xff,0xff,0x8b,0xb5,0xf7,0xee,0xd0,0x8e,0xdf,0xcd,0x99,0x78,
0x77,0xff,0xfe,0xf7,0xee,0x3b,0x9f,0x69,0xff,0x46,0xd3,0x5f,0xfc,0xff,0xff,
0xef,0x79,0xe7,0xfb,0xfb,0x36,0x7f,0x3f,0xb3,0x7e,0xef,0xf3,0xef,0x9f,0xff,
0xbf,0xff,0xf1,0xdd,0xce,0x9a,0xd7,0x3f,0xfc,0xff,0xd7,0xe3,0x8b,0xfb,0xfb,
0xff,0xe5,0x7f,0xfe,0x7e,0xeb,0xf3,0x73,0x1b,0xff,0xff,0xff,0xfe,0x5e,0xba,
0xe7,0xff,0x7f,0xde,0xea,0x3f,0xce,0xbe,0xaa,0xfd,0xff,0xa9,0xf3,0xf7,0x3f,
0xd9,0xff,0xef,0x77,0xfe,0xff,0xdf,0xff,0xbb,0x5d,0xf7,0xfe,0x1d,0x9b,0xed,
0xff,0x9f,0xda,0x6e,0xff,0xfd,0xf3,0xe5,0x3f,0xb6,0xfb,0x97,0xf5,0xbf,0xf8,
0xff,0xce,0xe8,0x77,0xf0,0xbe,0xff,0x7b,0x44,0xec,0xf7,0xbf,0x67,0x75,0xde,
0xd2,0xb5,0xa7,0xcc,0x8f,0xff,0xbf,0x6e,0x3d,0xe6,0x3b,0xfa,0x6b,0x7e,0xc3,
0xb1,0x9f,0x7f,0x77,0xfd,0x7f,0x7f,0xeb,0xdf,0x5b,0x2e,0x1f,0x78,0xfe,0xde,
0xed,0xdf,0xff,0xff,0x7f,0x7f,0xfb,0xff,0xef,0x5b,0xbf,0xfd,0xff,0xbf,0x7a,
0xbf,0xff,0x77,0xeb,0xfd,0xfb,0xd7,0x6d,0xff,0xfb,0xfe,0xcf,0xfd,0x5f,0xf1,
0xf9,0xfb,0xff,0xf6,0x7e,0xff,0xf7,0xfe,0xbe,0xc1,0xff,0xab,0xed,0x05,0xff,
0xb7,0xd6,0x7e,0xff,0xef,0xbf,0xff,0xf7,0xff,0x5f,0xf7,0xff,0xff,0xbf,0xff,
0xaf,0xf1,0xff,0x0e,0xfd,0xfe,0xa8,0x73,0x6d,0xff,0xab,0x5d,0xd5,0xdd,0xff,
0xfd,0xff,0xef,0xfd,0x7f,0xeb,0xef,0xff,0xdf,0xd0,0xff,0xff,0x7f,0xd3,0xb7,
0xff,0xe6,0xbe,0x5d,0xfe,0xbf,0x7b,0xfb,0x7f,0x77,0xee,0xfb,0xff,0xfc,0x6b,
0xf7,0x7f,0xff,0xb7,0xef,0xff,0xfe,0x3e,0x3a,0x6d,0x6e,0xd3,0x52,0x94,0xb8,
0x6f,0x6f,0x7b,0xff,0x7f,0xbe,0xff,0xff,0xff,0xbf,0x6f,0xff,0xee,0xaf,0xba,
0xf7,0xf8,0xdd,0xe5,0x9d,0xbc,0x00,0xdb,0x6f,0xc7,0xde,0x9d,0x36,0xfc,0xef,
0xff,0xff,0x5f,0xff,0xfb,0xb6,0xfe,0xf7,0x5e,0x7d,0xdf,0xff,0xa7,0xdb,0xd7,
0x9a,0x0a,0xa8,0xba,0xde,0x6b,0x55,0xcb,0xfe,0xb9,0xff,0xff,0xff,0xff,0x51,
0xa1,0x7a,0xff,0x6e,0xba,0xff,0xff,0x32,0xd5,0x77,0x99,0x33,0x5c,0xf5,0x17,
0xee,0xab,0xb4,0xad,0xbd,0xf6,0xff,0xfb,0xef,0x95,0xcd,0xff,0x9f,0xf6,0x62,
0xfa,0xff,0x28,0xda,0xfd,0x35,0x1a,0xe8,0xaa,0x27,0xf0,0x37,0xfb,0xae,0x5b,
0xef,0xfb,0x6c,0x4f,0xed,0x9b,0xff,0x4c,0x64,0x9f,0xe5,0xff,0x22,0x76,0xff,
0x2f,0x59,0xf7,0xae,0x21,0xc2,0xfc,0xea,0xcd,0xea,0x7b,0xdd,0xf5,0xfe,0x76,
0xf5,0x4b,0xbb,0x55,0xaf,0xfe,0x7f,0x5a,0x68,0x53,0x07,0x51,0xf1,0x6d,0x00,
0xc0,0x76,0xe7,0x6b,0x5e,0xfe,0xff,0xcf,0xff,0x5b,0xff,0xbf,0xdf,0x7a,0xd5,
0x79,0x7f,0x26,0xe6,0xf7,0x19,0x90,0xa5,0x6e,0x88,0x80,0xd4,0x47,0xa0,0xfc,
0x6f,0x5e,0x55,0x9e,0x57,0xde,0xee,0x76,0xb5,0x6a,0x95,0x3e,0x16,0xb1,0xbb,
0x18,0x42,0x42,0x57,0x74,0x4a,0x79,0x2f,0xa8,0x5a,0x7d,0xe5,0xed,0x5c,0xed,
0xee,0xfd,0xa9,0xcf,0xdb,0xb6,0x7e,0x0c,0x32,0xea,0x42,0x62,0x03,0x0e,0x9c,
0xd8,0xac,0x03,0xed,0xf5,0x7e,0x9b,0xdf,0xa4,0x57,0xfb,0xfb,0x7f,0x7a,0x77,
0x6f,0x27,0x0b,0x41,0x3b,0x18,0xb8,0x5c,0x10,0x1d,0x50,0x7b,0x62,0x81,0xbb,
0xfe,0xeb,0xb1,0xb9,0x5a,0x77,0x35,0xed,0xa1,0xfd,0xfa,0x0f,0x00,0x74,0x0f,
0x80,0xaa,0x00,0x96,0x1f,0x18,0xc1,0xc3,0x88,0xeb,0xff,0xef,0x87,0x27,0xf7,
0x47,0xd7,0xda,0xcc,0xc1,0x7e,0x43,0x3c,0x16,0x9d,0x20,0x23,0x15,0xc7,0x51,
0x80,0xe2,0xe4,0x15,0xe8,0x7b,0x59,0xd5,0xb5,0xf6,0xd8,0x78,0xa7,0x2a,0xe2,
0xf7,0x51,0xce,0x5a,0xa0,0xad,0xa1,0x42,0x04,0x05,0x8c,0xd2,0x6b,0x83,0xa0,
0x7e,0xf6,0xad,0xd5,0x46,0x97,0xfb,0x15,0x75,0xec,0xba,0x4e,0x44,0xa9,0x42,
0x88,0x06,0x4a,0xa0,0xca,0x06,0xf9,0x6c,0xa2,0x36,0x7f,0xaa,0xb7,0xad,0x97,
0xed,0x49,0x6f,0x11,0x4d,0x5d,0x16,0x0d,0x0e,0xce,0x92,0x20,0xb4,0xc0,0x2a,
0x93,0x04,0x7c,0xf3,0x74,0xfb,0xeb,0xec,0xd7,0x50,0xd2,0xdf,0xe5,0x58,0xae,
0x6a,0x9a,0x10,0xcb,0x97,0xa4,0x0a,0x88,0x58,0x0d,0x92,0x42,0x10,0x15,0x88,
0x3f,0x9f,0xb7,0xf6,0x14,0x68,0xbd,0x92,0x94,0x70,0xea,0x38,0x0b,0x04,0xa4,
0xf8,0x32,0x8c,0x50,0x83,0x4d,0x22,0x50,0x13,0x00,0x36,0x5d,0xcb,0x0c,0xba,
0x00,0xd5,0xc9,0x1c,0x31,0x14,0x2b,0x85,0x00,0x40,0x0c,0x2b,0x02,0x50,0x11,
0x0c,0x79,0xd8,0x88,0x02,0x47,0xfe,0xd5,0x17,0x14,0x83,0x3b,0xa2,0x43,0x34,
0x05,0x9f,0x20,0x30,0x49,0x30,0xc0,0xa8,0x52,0x7d,0x2e,0x45,0x20,0x0c,0x51,
0xcb,0x51,0x6f,0x3b,0x08,0x8e,0x17,0x39,0x99,0x08,0x80,0x68,0x30,0x40,0x16,
0x8a,0xd1,0x90,0x0a,0x4c,0x14,0x15,0x86,0x02,0x81,0x76,0x01,0xfe,0x4f,0x5d,
0x45,0x9c,0x00,0x88,0x14,0xe4,0x00,0x15,0xb0,0x94,0x93,0x94,0x29,0x18,0x58,
0x21,0x46,0x18,0x5c,0x99,0xf5,0x67,0xda,0x3f,0x43,0xea,0xa0,0x11,0x25,0x29,
0xe4,0xe6,0xf1,0xa2,0x15,0x51,0x01,0x23,0x21,0x62,0xf1,0xe8,0x6e,0xc8,0x50,
0xf5,0x18,0x6c,0x93,0x45,0x20,0x78,0x6c,0x89,0x9a,0x35,0x29,0x39,0xe3,0xa0,
0x82,0x43,0x48,0x09,0x20,0x09,0xce,0xe1,0xf2,0xa0,0x5e,0xb9,0xb9,0x91,0x90,
0xd7,0xcd,0x15,0x31,0x49,0x09,0x7b,0x75,0xa8,0x26,0x22,0x42,0xc0,0xc8,0x23,
0x88,0x72,0x02,0xd8,0xb8,0xae,0x34,0xe0,0x79,0xa7,0x50,0x02,0xca,0x83,0x70,
0x13,0xff,0x17,0x39,0x42,0xf2,0x33,0xa4,0x01,0x62,0xda,0x12,0x2c,0xaf,0xb5,
0x5b,0x88,0x1c,0xae,0x88,0xd0,0x80,0xc2,0x26,0x88,0x5d,0xc2,0x14,0x50,0x6a,
0x5a,0x8c,0xfc,0x80,0x2b,0xb8,0xde,0x1c,0xb0,0x5c,0x1f,0x20,0x2d,0x49,0xaa,
0x48,0xe9,0xbd,0x40,0x09,0xb6,0x24,0x39,0x46,0x70,0x68,0x61,0x9d,0x04,0x20,
0xa0,0x3a,0xef,0x4e,0x9b,0x9d,0x40,0x91,0x42,0x08,0x0e,0x48,0xac,0x00,0xc0,
0xdd,0x90,0x42,0xab,0x98,0x42,0x68,0x9c,0xc4,0x01,0x33,0xac,0x7c,0x20,0xa4,
0xac,0x2f,0xd1,0x4c,0x4e,0x61,0xc8,0xea,0xae,0x45,0x0b,0x06,0x84,0x22,0x03,
0x3c,0x40,0x73,0x00,0x26,0x50,0x50,0xc4,0x23,0xf0,0xa6,0x88,0x81,0x84,0x00,
0x17,0xa0,0x18,0x42,0x4d,0x64,0xac,0xf8,0x62,0x0c,0x50,0xa7,0x90,0x86,0x45,
0x65,0x91,0x33,0x59,0x31,0xc7,0xcc,0x3c,0xe1,0x4a,0xd6,0x70,0x96,0x62,0x5b,
0x1a,0x04,0x08,0xb4,0x08,0x10,0xac,0x44,0x37,0x7e,0x96,0x01,0x20,0xd8,0xb6,
0xc3,0x51,0x18,0x61,0xa4,0x3f,0x21,0x04,0x6a,0x18,0x08,0x44,0x00,0x84,0xc2,
0x54,0x04,0xf2,0x16,0x7b,0x4e,0x22,0x08,0xc7,0x0c,0xbe,0x05,0x2e,0x49,0x0c,
0x98,0x84,0x7a,0xe8,0x0e,0x25,0x5a,0x83,0x6a,0x28,0x0a,0x03,0x23,0x98,0x4f,
0xa0,0x86,0xa0,0x65,0x08,0x80,0x39,0x0a,0x94,0x14,0xa9,0x46,0x99,0x0b,0x2c,
0x16,0x05,0x11,0x20,0x8d,0x44,0xd8,0xa8,0xe1,0xc4,0x94,0x68,0x53,0x20,0x20,
0x89,0xef,0x0c,0x53,0x53,0xc2,0xa3,0xc4,0x55,0xa0,0x30,0xc4,0x90,0x40,0x73,
0x89,0x66,0x06,0x3c,0x8d,0x08,0x61,0xcd,0x15,0xea,0xda,0xc6,0x50,0x49,0x01,
0xd9,0x4c,0xe6,0x48,0xd2,0xc4,0x81,0xd0,0x04,0x01,0x0a,0x05,0x37,0x06,0xc8,
0x80,0x1d,0x00,0x07,0xd9,0x10,0x91,0x21,0x27,0x11,0x85,0x68,0x46,0x49,0x0a,
0x84,0x12,0x90,0x21,0x3d,0xe6,0x71,0x50,0x29,0x8e,0xe3,0x14,0x23,0xb3,0x94,
0x06,0x0a,0x49,0x04,0x21,0x86,0x64,0x62,0xc2,0x56,0x16,0x43,0xb0,0x22,0x95,
0xb1,0x11,0x70,0x29,0x96,0x49,0x18,0xd3,0x11,0x35,0x80,0x45,0xa2,0x30,0x00,
0xa0,0x76,0x65,0x32,0xcc,0x20,0x23,0xe4,0x88,0x84,0x90,0x20,0x04,0x04,0x5a,
0x41,0x80,0xc2,0xb1,0x47,0xd4,0x61,0x94,0x84,0xc8,0x14,0x40,0xe0,0x56,0x29,
0x4e,0x92,0x52,0x06,0x70,0xf0,0xa8,0x68,0x09,0xbd,0x52,0x8b,0x15,0x01,0xe7,
0x42,0x69,0x9d,0x80,0x30,0x07,0x08,0x62,0xa9,0x14,0x90,0x16,0x33,0xe2,0x90,
0xf6,0x42,0x04,0x21,0x1e,0x2e,0x93,0x03,0x2b,0x05,0x04,0x10,0x8c,0x88,0x2b,
0xa0,0x49,0x21,0x0a,0x01,0x12,0x04,0x6c,0xb6,0x50,0xc3,0x10,0x00,0x30,0x4d,
0x51,0x12,0x0d,0x64,0xcc,0xef,0xde,0xef,0x11,0xfd,0xcf,0x67,0x7e,0xcd,0xff,
0xc9,0x93,0x7b,0x7a,0x73,0xbe,0xef,0x77,0x5e,0xbc,0xf3,0xb9,0x33,0xbe,0x9f,
0x99,0xd2,0x9f,0xf6,0xff,0x6f,0xff,0x86,0xfa,0xb7,0xc7,0xfd,0xfd,0xeb,0xff,
0xb6,0xdf,0x65,0xed,0xcd,0xbb,0xf7,0xce,0x2e,0xd3,0x9b,0xfb,0x2c,0x7f,0xfd,
0x8f,0xbd,0x8e,0xbf,0x75,0xdf,0xdf,0xc7,0x9f,0xfd,0x7f,0xb7,0x7f,0x9b,0x79,
0xee,0xcd,0xeb,0xef,0xb4,0xe1,0xd7,0xf4,0x7e,0xff,0xe7,0xe1,0xb7,0xa7,0x75,
0xed,0xbd,0x31,0xf7,0xff,0xd5,0xe7,0xf9,0xff,0xe3,0xfb,0x9b,0xbf,0xf2,0xd3,
0x53,0x36,0xb8,0xff,0x9b,0x1f,0xbb,0x71,0x1e,0xf5,0xff,0x6d,0xfd,0x6c,0x9e,
0xf3,0xbf,0xd3,0xf8,0xaf,0x7a,0x99,0x6f,0xf9,0xbe,0x67,0x81,0x1d,0x3d,0xfa,
0xaf,0x7b,0xff,0xb6,0xff,0x57,0xff,0xf7,0xbd,0xbe,0x8f,0xff,0xc7,0xff,0xe2,
0x75,0x1e,0xeb,0xbd,0xbe,0x79,0x8b,0xbf,0xfb,0xdf,0x6f,0x9b,0x9e,0xff,0x4d,
0xfb,0x9f,0x77,0xe4,0x3f,0xfb,0x77,0xd6,0x4b,0xff,0x6f,0x5e,0xbf,0xfe,0xec,
0xfb,0xef,0x67,0xbb,0xd9,0xbb,0x9a,0x83,0x7e,0x6d,0xef,0xfd,0xdf,0x85,0x7d,
0x9f,0xa6,0xef,0xfb,0x9f,0xe9,0x1e,0xff,0xed,0xf8,0xff,0xcc,0xff,0xff,0xb4,
0xb3,0xcf,0xfb,0xc7,0xff,0xd7,0xff,0xd4,0xbf,0x0f,0xff,0xaf,0x3f,0xbd,0xae,
0xf9,0xaf,0x5f,0xef,0xff,0x7f,0x4f,0x16,0xcf,0xff,0xff,0xdb,0xff,0x53,0x17,
0xb6,0xcf,0x5f,0xba,0xff,0xe4,0xf3,0xfe,0xf3,0x7f,0xb9,0xef,0x6f,0xff,0xea,
0xf3,0xd6,0x9d,0x4f,0xbb,0xf7,0x6f,0xe5,0x9f,0xb7,0x61,0xeb,0xdf,0xbf,0x73,
0xdb,0xf7,0xec,0xff,0x5b,0xbe,0xab,0x3f,0x7d,0xf3,0xcb,0x3e,0xe7,0xd7,0x7f,
0x77,0xbb,0x7e,0xdd,0x9f,0xda,0xfd,0xde,0xfd,0xbf,0xbf,0xff,0xd9,0xf4,0x79,
0x0f,0xb3,0x31,0x7f,0xdb,0xff,0x6f,0xeb,0x78,0xb9,0xb2,0xfe,0xf7,0xd9,0xfd,
0xd9,0xff,0xdd,0xff,0x09,0xdf,0xaa,0xfa,0xfd,0xfb,0x9f,0xdf,0xe9,0xfc,0xbd,
0xdf,0x76,0xe7,0xdd,0x78,0xff,0x9d,0xff,0x5a,0xff,0x39,0xdf,0xff,0x1d,0x3f,
0x9f,0xff,0xff,0x1f,0xf7,0x3e,0x27,0xef,0xd7,0x7b,0x5f,0xfe,0xf9,0xee,0xff,
0xf9,0xdd,0x5e,0xbf,0xbf,0xcf,0xfd,0x3a,0x79,0x2f,0xfc,0xcb,0xfe,0x76,0xc9,
0xfd,0xd6,0xff,0xfb,0x7f,0xca,0xd7,0x56,0xdb,0xb5,0x6a,0x95,0x5a,0xda,0xde,
0x6a,0xfe,0xb6,0x76,0xeb,0xab,0xed,0x7e,0x6b,0x9b,0x76,0xd5,0xbf,0xfe,0xd6,
0xbb,0xf7,0xb6,0xfb,0xfa,0x5d,0xeb,0xe9,0x6d,0xb5,0xb5,0xcb,0xed,0xad,0xb5,
0xb4,0xba,0xd7,0x56,0xec,0xad,0xbd,0xf7,0xad,0xfd,0x6d,0x3d,0xfb,0xd6,0xb6,
0xb6,0x7a,0xb7,0xf6,0x6d,0xf7,0xf0,0xb6,0xf7,0xb6,0x55,0x77,0xad,0xbd,0xb6,
0x76,0xd3,0x5a,0xdb,0xa6,0x6e,0x67,0x6d,0xaa,0xed,0x2b,0xb5,0x6d,0xda,0xb6,
0x6d,0xe9,0x6d,0x6d,0xb3,0xad,0xda,0xea,0xe6,0x6d,0xbb,0xbb,0xda,0xe6,0x6e,
0xdf,0x55,0xd3,0x6a,0x9b,0x6e,0x6f,0xaf,0xb6,0x6d,0xdb,0xab,0xde,0x5d,0xdf,
0xb6,0xa7,0x5a,0xf5,0xab,0x56,0xd5,0x6f,0xbb,0xf7,0xf6,0xe7,0xde,0xd6,0x66,
0xdb,0x5a,0x79,0x5f,0x5b,0xb7,0x5e,0x75,0xab,0x7a,0x5b,0x7b,0x9f,0xff,0xb6,
0xfb,0xb6,0xae,0x6d,0xb7,0xeb,0x5d,0xb5,0xd5,0xba,0x6d,0xdb,0xb6,0x55,0x4f,
0xdb,0xf2,0xad,0x1e,0xad,0x6d,0xdb,0xbf,0xb6,0x6d,0xef,0x9a,0xbb,0xb6,0x6d,
0xad,0x75,0xef,0x6b,0xb7,0xad,0x6d,0xfb,0xee,0x7a,0xbb,0xdf,0xad,0xf9,0xda,
0xb6,0x6d,0x5a,0xdb,0x92,0x55,0xf7,0xd7,0xda,0xb6,0xb6,0xfd,0xaa,0xfa,0x6d,
0xdb,0xba,0xad,0x6d,0xdb,0xd6,0xb2,0xb6,0xdb,0x6d,0xdb,0xb6,0xad,0xb5,0xed,
0xf6,0xbb,0x6d,0x6b,0xdb,0xdb,0x56,0xdb,0xbb,0xad,0x6d,0xc5,0x76,0xb5,0x7b,
0xb7,0xdf,0xeb,0x74,0xdb,0x6b,0xdb,0xda,0xa6,0x37,0xb7,0x6d,0xcb,0xad,0x6d,
0xd6,0xdb,0xee,0x7e,0xeb,0xb6,0x6a,0xdb,0xda,0xd6,0x6f,0x7d,0xed,0xed,0x65,
0xb6,0x6d,0x5b,0x57,0xaf,0xb2,0x6d,0x7b,0xb8,0xb6,0xd7,0x35,0x5d,0x7d,0xd3,
0xdb,0xef,0x6d,0x57,0x7b,0xda,0xea,0xef,0x76,0xaf,0xed,0xb6,0xed,0x96,0xed,
0xfd,0xb6,0xd5,0xd4,0xda,0xfd,0xfb,0xbb,0x75,0x27,0x6f,0xd5,0xbe,0x6d,0xdd,
0x75,0x5d,0x9a,0x6d,0xbb,0x56,0xdb,0xb6,0x8d,0x57,0x7b,0xdb,0xb6,0x7b,0x6b,
0xb6,0xdd,0xbe,0xd5,0xf6,0xbd,0x7d,0xf5,0xb6,0xb6,0xea,0xaa,0xb7,0xf7,0xd6,
0xda,0x6e,0xdb,0xf6,0xba,0x5e,0x6f,0xdb,0xd6,0xad,0xdb,0x7e,0x73,0xeb,0xd9,
0xf3,0xb6,0xda,0x5b,0xdf,0xb7,0x5e,0xd5,0x5e,0x7f,0x5b,0xbb,0x6d,0xdb,0xf6,
0xdd,0xbe,0x6d,0xbb,0xb6,0x76,0xad,0xde,0x5e,0x6f,0xdb,0xeb,0x67,0x6f,0x6d,
0xd7,0xdd,0x76,0xf3,0xaa,0xff,0x0d,0xb6,0x6d,0xdb,0xba,0xf5,0xb6,0xed,0xdd,
0xdb,0xef,0xb3,0x6b,0xbd,0x6d,0xef,0xbd,0xbd,0xad,0xad,0xb3,0xad,0x8b,0xff,
0x3c,0xbb,0xd8,0xb6,0xad,0xed,0xdb,0xdb,0xb6,0xf7,0xad,0x59,0xad,0x1d,0xfb,
0xb6,0x75,0xfb,0xf5,0xb6,0xf6,0xdb,0xf6,0xb6,0xd6,0x76,0xb6,0x6d,0xdb,0xf6,
0xb6,0x5e,0x6f,0xdb,0xea,0xd6,0xb6,0x8e,0xdb,0x76,0xdb,0xae,0xd6,0xd6,0xdb,
0xd6,0xad,0xdb,0xb6,0xad,0xdd,0xba,0xbd,0x6d,0xdb,0x6e,0x3d,0xbd,0x6d,0xbf,
0xe7,0xdb,0x6d,0x6f,0xdb,0x6d,0x7b,0xbb,0x4d,0x6f,0xbb,0xb6,0x6f,0xcb,0x56,
0xab,0x69,0xdf,0xb6,0x6d,0x5b,0xdf,0xf6,0xb6,0x5d,0xee,0xfb,0xd6,0xda,0xb4,
0xb6,0xad,0xdd,0xba,0xbd,0x6d,0x7d,0xab,0xbd,0xad,0x7b,0xed,0x7e,0xd9,0xb6,
0x6d,0x67,0xd3,0xdb,0xf6,0xdb,0x76,0xb3,0xd6,0xeb,0xde,0xf6,0x72,0x6a,0xf6,
0xb6,0x66,0x5b,0x67,0x5b,0xd7,0xab,0xd7,0x6e,0xdb,0xb6,0xd7,0x6e,0x6f,0xdb,
0x6d,0xdb,0xee,0x56,0x56,0x75,0x9b,0xdf,0xdd,0xd3,0xdb,0xed,0xed,0x6d,0x9b,
0xaf,0xf7,0xd4,0xbd,0x6d,0xdb,0x2c,0x7b,0xbd,0xed,0x76,0x6b,0xd9,0xed,0xbb,
0x9c,0x6d,0x35,0xb6,0x6e,0x6f,0xdb,0xb2,0xda,0xdb,0x5b,0x5d,0xb5,0xd7,0xb6,
0x6d,0x7b,0xd5,0xf4,0xb6,0xbb,0x6d,0x2d,0xb7,0x76,0xeb,0xb6,0x6b,0xad,0xb5,
0xbd,0x6d,0xdd,0x5c,0xb7,0x5a,0xeb,0xed,0xed,0xda,0xb6,0xad,0x65,0xdb,0xdb
};
